assets/Palm up hand/Medium-Dark/Flat/palm_up_hand_flat_medium-dark.svg

<svg width="32" height="32" viewBox="0 0 32 32" fill="none" xmlns="http://www.w3.org/2000/svg">
<path d="M21 15.433V14.6408C21 13.5363 20.1046 12.6408 19 12.6408C17.8954 12.6408 17 13.5363 17 14.6408V15.2614C16.5132 14.7134 15.742 14.4543 14.9857 14.6569C13.9188 14.9428 13.2856 16.0395 13.5715 17.1064L14.6137 20.9959C14.8996 22.0629 15.9963 22.696 17.0632 22.4101C17.4482 22.307 17.7767 22.0982 18.026 21.8234C18.3142 21.9844 18.6464 22.0762 19 22.0762C19.5872 22.0762 20.1154 21.8231 20.4813 21.4201C20.7149 21.6414 21.0054 21.8094 21.3381 21.8985C22.405 22.1844 23.5017 21.5513 23.7876 20.4843L25.4513 14.2755C25.7371 13.2085 25.104 12.1119 24.037 11.826C22.9701 11.5401 21.8734 12.1733 21.5876 13.2402L21 15.433Z" fill="#764C49"/>
<path d="M2.02448 18.648C2.02448 14.5 3.72039 12.3395 7.33927 9.08882C8.42673 8.15672 9.81175 7.64436 11.244 7.64436H14.4185C14.8051 7.64436 15.1744 7.65972 15.4387 7.37757C16.429 6.32035 18.1338 6.41355 19.003 7.57243L19.0716 7.66393C19.7972 8.63144 19.6994 9.98564 18.8422 10.8388L18.2269 11.4512C17.4568 12.2177 16.4145 12.648 15.328 12.648H14.7767C13.7256 12.648 12.7684 13.2531 12.3175 14.2026L12.2955 14.2491C12.117 14.6249 12.0245 15.0356 12.0245 15.4516V15.648C12.0245 17.3048 13.3676 18.6479 15.0245 18.6479H20.211C20.7326 18.6479 21.2335 18.4442 21.607 18.0801L25.8628 13.9317C26.9094 12.9115 28.6142 13.0436 29.4911 14.2128C30.2505 15.2254 30.1023 16.6519 29.1509 17.4867L22.7226 23.1268C21.628 24.0872 20.2216 24.6167 18.7654 24.6167H9.20481C5.89383 24.6167 2.02448 22.796 2.02448 18.648Z" fill="#966661"/>
</svg>

<svg xmlns="http://www.w3.org/2000/svg" width="32" height="32" fill="none"><path fill="#764C49" d="M21 15.433v-.792a2 2 0 0 0-4 0v.62a2 2 0 0 0-3.428 1.845l1.042 3.89a2 2 0 0 0 3.412.827 1.995 1.995 0 0 0 2.455-.403 2 2 0 0 0 3.306-.936l1.664-6.208a2 2 0 0 0-3.863-1.036L21 15.433Z"/><path fill="#966661" d="M2.024 18.648c0-4.148 1.696-6.309 5.315-9.56a6 6 0 0 1 3.905-1.444h3.175c.386 0 .755.016 1.02-.266a2.33 2.33 0 0 1 3.564.194l.069.092a2.426 2.426 0 0 1-.23 3.175l-.615.612a4.11 4.11 0 0 1-2.899 1.197h-.551a2.722 2.722 0 0 0-2.46 1.555l-.021.046a2.802 2.802 0 0 0-.271 1.203v.196a3 3 0 0 0 3 3h5.186a2 2 0 0 0 1.396-.568l4.256-4.148a2.422 2.422 0 1 1 3.288 3.555l-6.428 5.64a6 6 0 0 1-3.958 1.49h-9.56c-3.311 0-7.18-1.821-7.18-5.969Z"/></svg>
